!!!COM: Palestrina, Giovanni Perluigi da
!!!OPR: Missa Regina coeli (1600)
!!!OMD: Credo
!!!OTL: First Section
**kern	**kern	**kern	**kern	**kern
*Ibass	*Itenor	*Itenor	*Icalto	*Icant
!Bassus	!Tenor 2	!Tenor 1	!Altus	!Cantus
*clefF4	*clefGv2	*clefGv2	*clefG2	*clefG2
*k[b-]	*k[b-]	*k[b-]	*k[b-]	*k[b-]
*F:ion	*F:ion	*F:ion	*F:ion	*F:ion
*M4/2	*M4/2	*M4/2	*M4/2	*M4/2
=1	=1	=1	=1	=1
0r	1c	0r	1r	0r
.	2d	.	1f	.
.	[2f	.	.	.
=2	=2	=2	=2	=2
0r	2f]	1c	1g	0r
.	2e	.	.	.
.	2f	2d	1f	.
.	2d	[2f	.	.
=3	=3	=3	=3	=3
0r	1c	2f]	1g	1r
.	.	2e	.	.
.	1F	2f	2a	1cc
.	.	2a	[2cc	.
=4	=4	=4	=4	=4
0r	2r	2.g	4cc]	1dd
.	.	.	4b-	.
.	2G	.	2b-	.
.	.	4f	.	.
.	2A	4e	1a	1cc
.	.	4d	.	.
.	[2c	2e	.	.
=5	=5	=5	=5	=5
0r	2c]	2d	1g	1dd
.	2B	4g	.	.
.	.	4f	.	.
.	[1c	4e	2r	1ee
.	.	4d	.	.
.	.	4c	2g	.
.	.	4B-	.	.
=6	=6	=6	=6	=6
1F	1c]	1A	2a	2.ff
.	.	.	1cc	.
.	.	.	.	4ee
1G	1g	1d	.	4dd
.	.	.	.	4cc
.	.	.	2b-	[2dd
=7	=7	=7	=7	=7
1F	1c	2.f	1a	4dd]
.	.	.	.	4cc
.	.	.	.	1cc
.	.	4e	.	.
1G	1r	1d	2.g	.
.	.	.	.	2b-
.	.	.	4f	.
=8	=8	=8	=8	=8
1A	1r	2c	4e	4cc
.	.	.	4d	4b-
.	.	2.f	2c	4a
.	.	.	.	4g
2.B-	2r	.	1d	1f
.	.	4e	.	.
.	2f	4d	.	.
4A	.	4c	.	.
=9	=9	=9	=9	=9
1G	2e	1B-	2r	1r
.	2d	.	1b-	.
1F	1f	1c	.	2r
.	.	.	2a	2ff
=10	=10	=10	=10	=10
0r	2c	0r	2g	2ee
.	2G	.	2b-	2dd
.	1d	.	2a	1ff
.	.	.	2f	.
=11	=11	=11	=11	=11
0r	2c	2r	2g	2ee
.	2A	1f	2a	2cc
.	2B-	.	2.g	2dd
.	2c	2e	.	2cc
.	.	.	4f	.
=12	=12	=12	=12	=12
0r	2G	2d	2g	2b-
.	2F	2f	2.a	2.dd
.	2A	2e	.	.
.	.	.	4g	4cc
.	2A	2c	4e	[2cc
.	.	.	4f	.
=13	=13	=13	=13	=13
1r	1G	1d	1g	2cc]
.	.	.	.	2b
2.F	2r	2.c	1a	1cc
.	[2c	.	.	.
4F	.	4d	.	.
=14	=14	=14	=14	=14
2E	4c]	2e	1r	0r
.	4c	.	.	.
2D	2B-	2f	.	.
4F	2A	1c	2.f	.
4G	.	.	.	.
4A	[2c	.	.	.
4F	.	.	4f	.
=15	=15	=15	=15	=15
1G	4c]	0r	2e	0r
.	8B-	.	.	.
.	8A	.	.	.
.	2B-	.	2d	.
2A	2c	.	1f	.
2B-	2d	.	.	.
=16	=16	=16	=16	=16
1c	0g	1r	2.e	2r
.	.	.	.	1cc
.	.	.	4c	.
1G	.	2r	1d	.
.	.	2g	.	2b-
=17	=17	=17	=17	=17
1A	1r	2f	2r	2a
.	.	2e	2c	2cc
2.G	2r	1g	2d	4b-
.	.	.	.	4cc
.	[2B-	.	[2d	4dd
4F	.	.	.	4ee
=18	=18	=18	=18	=18
4D	2B-]	2.f	2d]	1ff
4E	.	.	.	.
2F	2A	.	1c	.
.	.	4c	.	.
2C	2G	4e	.	2ee
.	.	4f	.	.
2G	2B-	[2g	[2d	[2dd
=19	=19	=19	=19	=19
2D	2.A	2g]	2d]	4dd]
.	.	.	.	4cc
2F	.	1f	2c	4a
.	8G	.	.	4b-
.	8F	.	.	.
1C	2G	.	2c	[1cc
.	2G	2e	2g	.
=20	=20	=20	=20	=20
0F	1F	0f	2a	1cc]
.	.	.	1cc	.
.	2.A	.	.	2r
.	.	.	2a	2cc
.	4A	.	.	.
=21	=21	=21	=21	=21
0r	2G	0r	2b-	2dd
.	2F	.	2a	1ff
.	2B-	.	1g	.
.	2c	.	.	2ee
=22	=22	=22	=22	=22
0r	2d	2r	2f	2ff
.	2e	2c	2g	2ee
.	2f	2d	1b-	1dd
.	2B-	[2f	.	.
=23	=23	=23	=23	=23
0r	1c	2f]	2.g	1cc
.	.	2e	.	.
.	.	.	4a	.
.	2B-	2f	4b-	2dd
.	.	.	4a	.
.	2c	2e	4g	[2cc
.	.	.	4f	.
=24	=24	=24	=24	=24
2r	1G	1d	2.g	2cc]
2G	.	.	.	2b
.	.	.	4f	.
2A	2r	2c	1e	1cc
[2c	2c	2e	.	.
=25	=25	=25	=25	=25
2c]	2d	1d	0r	1r
2B-	1f	.	.	.
1c	.	1c	.	1g
.	[2e	.	.	.
=26	=26	=26	=26	=26
1A	2e]	1r	1c	2a
.	2f	.	.	1cc
1G	2g	2r	1d	.
.	2g	2G	.	2b-
=27	=27	=27	=27	=27
2.F	4c	2A	2f	2cc
.	4B-	.	.	.
.	4A	1c	1f	2cc
4E	4G	.	.	.
2D	1F	.	.	2dd
2D	.	2B-	2d	[2ff
=28	=28	=28	=28	=28
0C	1G	1c	2.g	2ff]
.	.	.	.	4ee
.	.	.	4g	4dd
.	1c	2r	2g	4ee
.	.	.	.	4dd
.	.	2c	2e	4cc
.	.	.	.	4b-
=29	=29	=29	=29	=29
2r	0r	2d	1f	2.a
2F	.	1f	.	.
.	.	.	.	8g
.	.	.	.	8f
1c	.	.	1r	2g
.	.	2e	.	2g
=30	=30	=30	=30	=30
2.d	2r	1f	0r	2f
.	1f	.	.	2a
4c	.	.	.	.
2B-	.	2r	.	2b-
2A	2f	2c	.	[2cc
=31	=31	=31	=31	=31
1G	2e	1g	0r	2cc]
.	4d	.	.	2b-
.	4e	.	.	.
2.F	4f	2.a	.	2a
.	4g	.	.	.
.	[2a	.	.	2f
4G	.	4g	.	.
=32	=32	=32	=32	=32
4A	2a]	2f	1c	1cc
4B-	.	.	.	.
2c	2.g	2e	.	.
1B-	.	2d	1g	[1dd
.	4f	.	.	.
.	4d	2G	.	.
.	4e	.	.	.
=33	=33	=33	=33	=33
1A	2f	1r	2.a	2dd]
.	2e	.	.	2cc
.	.	.	4g	.
1r	2d	2r	[1f	4b-
.	.	.	.	4a
.	4c	2F	.	[2cc
.	4B-	.	.	.
=34	=34	=34	=34	=34
0r	2.A	1c	2f]	4cc]
.	.	.	.	4b-
.	.	.	2e	1a
.	4c	.	.	.
.	1B-	2.d	2f	.
.	.	.	4e	2g
.	.	4d	4d	.
=35	=35	=35	=35	=35
1F	1A	2c	4f	1a
.	.	.	4g	.
.	.	1f	2a	.
1c	1r	.	2g	1r
.	.	2e	2cc	.
=36	=36	=36	=36	=36
2.d	1r	1.f	2b-	2r
.	.	.	2.a	2f
4d	.	.	.	.
2c	2r	.	.	1cc
.	.	.	4g	.
[2c	2c	2e	[2g	.
=37	=37	=37	=37	=37
2c]	1g	1d	4g]	2.dd
.	.	.	4f	.
2B-	.	.	2d	.
.	.	.	.	4dd
2A	2.a	1r	2e	2cc
2F	.	.	4f	[2cc
.	4a	.	4e	.
=38	=38	=38	=38	=38
2G	1g	0r	4d	2cc]
.	.	.	4c	.
2G	.	.	1d	2b-
2A	2f	.	.	[1a
2A	2e	.	2c#	.
=39	=39	=39	=39	=39
1D	0d	1f	1d	1a]
1B-	.	2d	2r	1dd
.	.	2f	2b-	.
=40	=40	=40	=40	=40
2G	0r	2g	2b-	2dd
2B-	.	2.f	2b-	2dd
1c	.	.	1g	1cc
.	.	8e	.	.
.	.	8d	.	.
.	.	2e	.	.
=41	=41	=41	=41	=41
0F	1r	2.f	2.a	2cc
.	.	.	.	2cc
.	.	8e	4b-	.
.	.	8d	.	.
.	1f	1c	4cc	2a
.	.	.	4b-	.
.	.	.	4a	2cc
.	.	.	4g	.
=42	=42	=42	=42	=42
0r	2d	2r	1f	2.dd
.	2f	2B-	.	.
.	.	.	.	8cc
.	.	.	.	8dd
.	2.g	2G	2r	2ee-
.	.	2B-	2b-	[2dd
.	4f	.	.	.
=43	=43	=43	=43	=43
0r	2e	2c	2g	4dd]
.	.	.	.	4cc
.	2f	2F	2a	1cc
.	1d	1G	2g	.
.	.	.	2g	2b
=44	=44	=44	=44	=44
1F	1c	1r	2a	2cc
.	.	.	2a	1ff
1D	[1f	2r	2a	.
.	.	[2B-	[2f	2dd
=45	=45	=45	=45	=45
1F	1f]	2B-]	4f]	1cc
.	.	.	4g	.
.	.	2A	2a	.
2G	1d	1B-	2g	2b-
2G	.	.	2b-	2dd
=46	=46	=46	=46	=46
2C	1e	2c	2a	2.cc
2C	.	2c	1g	.
.	.	.	.	4b-
1D	1f	2F	.	2a
.	.	2F	[2f	2f
=47	=47	=47	=47	=47
0C	2r	0G	2f]	0cc
.	2c	.	4e	.
.	.	.	4d	.
.	2c	.	1e	.
.	2c	.	.	.
=48	=48	=48	=48	=48
1r	1c	0F	[0f	0a
2.F	2A	.	.	.
.	[2c	.	.	.
4G	.	.	.	.
=49	=49	=49	=49	=49
2A	2c]	0r	1f]	0r
2B-	2d	.	.	.
2G	2e	.	1r	.
2A	2f	.	.	.
=50	=50	=50	=50	=50
1B-	2.d	0r	2.f	0r
.	4e	.	4g	.
2A	2f	.	2a	.
2G	2g	.	2b-	.
=51	=51	=51	=51	=51
2C	2.e	2.c	1.g	0r
1c	.	.	.	.
.	4d	4d	.	.
.	2c	2e	.	.
2F	2c	2f	2a	.
=52	=52	=52	=52	=52
1G	1g	2d	2b-	1r
.	.	2e	2b-	.
1F	1c	2f	1a	2.cc
.	.	2f	.	.
.	.	.	.	4dd
=53	=53	=53	=53	=53
0r	0r	2e	2g	2ee
.	.	2d	2a	2ff
.	.	2g	2b	2dd
.	.	2e	[2cc	2ee
=54	=54	=54	=54	=54
0r	1r	1d	4cc]	2ff
.	.	.	8b	.
.	.	.	8a	.
.	.	.	2b	2ff
.	2r	1c	2.cc	2.ee
.	[2c	.	.	.
.	.	.	4b-	4dd
=55	=55	=55	=55	=55
1F	2c]	0r	1a	1cc
.	2A	.	.	.
2D	2B-	.	1r	2dd
2E	2c	.	.	[2cc
=56	=56	=56	=56	=56
2F	1d	0r	2r	4cc]
.	.	.	.	8b
.	.	.	.	8a
2G	.	.	1g	2b
4C	1c	.	.	1cc
4D	.	.	.	.
4E	.	.	2e	.
4C	.	.	.	.
=57	=57	=57	=57	=57
2D	2A	1r	2f	2r
2E	2G	.	2g	1cc
1F	1c	1f	1a	.
.	.	.	.	2a
=58	=58	=58	=58	=58
0r	1r	2d	2f	2b-
.	.	2e	2e	2cc
.	1B-	2f	1d	1dd
.	.	[2g	.	.
=59	=59	=59	=59	=59
0r	2G	2g]	0r	2b-
.	2A	1f	.	2a
.	2B-	.	.	1g
.	2c	2e	.	.
=60	=60	=60	=60	=60
1F	4d	1a	2r	1f
.	4c	.	.	.
.	1c	.	2f	.
2G	.	2.g	2d	1r
2G	2B-	.	2d	.
.	.	4f	.	.
=61	=61	=61	=61	=61
1A	1c	4e	4c	1r
.	.	4d	4d	.
.	.	2c	4e	.
.	.	.	4f	.
2G	1r	1d	4g	1b-
.	.	.	4a	.
2G	.	.	2b-	.
=62	=62	=62	=62	=62
1C	1r	1e	4a	2cc
.	.	.	4g	.
.	.	.	2.g	2cc
1r	1B-	2r	.	1dd
.	.	.	4f	.
.	.	2f	[2f	.
=63	=63	=63	=63	=63
0r	2G	2g	2f]	2b-
.	2G	2g	2e	2g
.	4F	1a	2f	[1cc
.	4G	.	.	.
.	4A	.	4c	.
.	4B-	.	4d	.
=64	=64	=64	=64	=64
0r	4c	2g	4e	2cc]
.	4d	.	4f	.
.	2e	2g	2g	4b-
.	.	.	.	4cc
.	4d	1f	2a	1dd
.	4c	.	.	.
.	4B-	.	2d	.
.	4c	.	.	.
=65	=65	=65	=65	=65
0r	4d	1B-	1f	2r
.	4e	.	.	.
.	1f	.	.	2b-
.	.	2c	1r	2g
.	2e	2c	.	2g
=66	=66	=66	=66	=66
0r	2f	1d	0r	4f
.	.	.	.	4g
.	2f	.	.	4a
.	.	.	.	4b-
.	2g	1c	.	4cc
.	.	.	.	4dd
.	2g	.	.	2ee-
=67	=67	=67	=67	=67
1F	1a	1r	1f	2dd
.	.	.	.	2cc
2G	2.g	2r	2d	4b-
.	.	.	.	4g
2G	.	2B-	2d	2b-
.	4f	.	.	.
=68	=68	=68	=68	=68
1A	4e	2c	4c	1a
.	4d	.	4d	.
.	1c	2c	4e	.
.	.	.	4f	.
1G	.	1d	4g	1r
.	.	.	4a	.
.	2B-	.	2b-	.
=69	=69	=69	=69	=69
1C	1e-	1c	2a	0r
.	.	.	2.g	.
1D	2d	1F	.	.
.	.	.	4f	.
.	2B-	.	[2f	.
=70	=70	=70	=70	=70
1C	1c	1G	2f]	1cc
.	.	.	2e	.
[1F	2r	1F	1f	1a
.	2c	.	.	.
=71	=71	=71	=71	=71
1F]	1A	2r	1r	0f
.	.	2F	.	.
1r	[1F	1A	1cc	.
=72	=72	=72	=72	=72
0r	2F]	1c	1a	1r
.	2F	.	.	.
.	1B-	1d	2f	2r
.	.	.	2d	2f
=73	=73	=73	=73	=73
0r	2A	4c	4e	1a
.	.	4B-	4c	.
.	1e	4A	2.cc	.
.	.	4G	.	.
.	.	2A	.	1cc
.	.	.	4b-	.
.	[2f	2F	[2a	.
=74	=74	=74	=74	=74
1r	2f]	1B-	2a]	1dd
.	2d	.	2g	.
1F	2f	2.A	2a	[1cc
.	[2a	.	[2f	.
.	.	4B-	.	.
=75	=75	=75	=75	=75
1A	4a]	1c	4f]	1cc]
.	4g	.	4e	.
.	1f	.	2a	.
1c	.	1r	1g	1cc
.	2e	.	.	.
=76	=76	=76	=76	=76
1d	1f	1r	1f	2r
.	.	.	.	2f
2.c	1r	1F	2r	1a
.	.	.	[2cc	.
4B-	.	.	.	.
=77	=77	=77	=77	=77
4A	1F	1A	2cc]	2cc
4G	.	.	.	.
2.F	.	.	1a	2cc
.	1A	2c	.	2.ff
4E	.	.	.	.
4D	.	[2d	[2f	.
4C	.	.	.	4ee
=78	=78	=78	=78	=78
[0BB-	2B-	2d]	2f]	4dd
.	.	.	.	4cc
.	2d	2.f	2d	4b-
.	.	.	.	4a
.	4d	.	[1f	[1b-
.	4c	4e	.	.
.	4B-	4d	.	.
.	4A	4c	.	.
=79	=79	=79	=79	=79
1BB-]	1B-	1d	1f]	1b-]
[1F	[1A	[1c	[1f	[1cc
=80	=80	=80	=80	=80
1F]	1A]	1c]	1f]	1cc]
1r	[1B-	[1d	[1f	1r
=81	=81	=81	=81	=81
1r	1B-]	1d]	1f]	0b-
1r	1G	1d	1g	.
=82	=82	=82	=82	=82
0F	1F	0f	0a	1cc
.	1A	.	.	[1dd
=83	=83	=83	=83	=83
1G	1B	2d	1.g	1dd]
.	.	4g	.	.
.	.	4f	.	.
[1A	[1c	4e	.	1cc
.	.	4d	.	.
.	.	4c	4f	.
.	.	4B-	4e	.
=84	=84	=84	=84	=84
1A]	1c]	4A	1f	1.cc
.	.	4B-	.	.
.	.	2c	.	.
1G	1r	[1d	[1g	.
.	.	.	.	4b
.	.	.	.	4a
=85	=85	=85	=85	=85
1G	1G	1d]	1g]	1b
[1F	2.A	1f	1c	2cc
.	.	.	.	2f
.	4B-	.	.	.
=86	=86	=86	=86	=86
1F]	2c	2r	1f	2.a
.	2d	2F	.	.
.	.	.	.	4b-
1r	2c	2A	2r	2cc
.	[2f	2B-	2d	2dd
=87	=87	=87	=87	=87
2r	4f]	1F	2.f	2cc
.	4e	.	.	.
2D	2d	.	.	2.ff
.	.	.	4g	.
2.F	2c	1f	1a	.
.	.	.	.	4ee
.	2A	.	.	2dd
4G	.	.	.	.
=88	=88	=88	=88	=88
2A	1A	2e	2a	2cc
2D	.	2d	2f	1dd
1A	2r	1e	1a	.
.	2e	.	.	2cc#
=89	=89	=89	=89	=89
1D	1f#	1d	2a	1dd
.	.	.	2a	.
1G	1g	2r	1b	1dd
.	.	[2g	.	.
=90	=90	=90	=90	=90
1c	1e	2g]	1.cc	1g
.	.	1c	.	.
1F	1r	.	.	1a
.	.	[2d	2f	.
=91	=91	=91	=91	=91
1G	1g	2d]	1r	1b-
.	.	1e	.	.
1A	1c	.	1cc	1a
.	.	[2f	.	.
=92	=92	=92	=92	=92
1.B-	1d	4f]	1f	2r
.	.	4e	.	.
.	.	4d	.	1dd
.	.	4c	.	.
.	2d	2B-	2g	.
2A	[2f	2F	2a	2cc
=93	=93	=93	=93	=93
1G	2f]	1B-	2b-	2dd
.	2e	.	2b-	2g
[1F	[1f	1r	[1a	1cc
=94	=94	=94	=94	=94
1F]	1f]	1c	0a]	2r
.	.	.	.	2cc
1r	1r	1d	.	1f
=95	=95	=95	=95	=95
1C	1c	1e	1r	2g
.	.	.	.	1a
1D	1F	2f	1r	.
.	.	2f	.	2b-
=96	=96	=96	=96	=96
1E	1G	2e	1g	2cc
.	.	2.c	.	1cc
1F	1A	.	1c	.
.	.	4A	.	.
.	.	2a	.	[2ff
=97	=97	=97	=97	=97
1BB-	1B-	2f	1d	2ff]
.	.	1g	.	2dd
[1C	1A	.	2e	1cc
.	.	[2f	2f	.
=98	=98	=98	=98	=98
1C]	1G	2f]	1g	1cc
.	.	2e	.	.
[1F	[1F	[1f	[1a	[1cc
=99	=99	=99	=99	=99
1F]	1F]	1f]	1a]	1cc]
*-	*-	*-	*-	*-
!!!CDT: 1525/^1526/-1594/2/2
!!!OCY: Italia
!!!AGN: Mass (Paraphrase)
!!!AST: renaissance, vocal
!!!ASW: Antiphon
!!!PWK: Masses, Book 11
!!!RNB: Cadence finals: C
!!!YOR: Le Opere Complete, v. 28, p. 32
!!!YOO: Rome, Italy: Fratelli Scalera
!!!END: 1992//
!!!EED: John Miller
!!!YEC: Copyright 2000, John Miller
!!!YEN: United States of America
!!!YEM: Rights to all derivative electronic formats reserved.
!!!YEM: Refer to licensing agreement for further details.
!!!YEM: This file must be accompanied by the licensing agreement.
!!!YEM: A copy of the licensing agreement may be found at http://www.music-cog.ohio-state.edu/HumdrumDatabases/Palestrina/license.txt
!!!EMD: converted to Humdrum by Bret Aarden
